X: 37215
T: Sirkkojen Tanssi
R: barndance
M: 4/4
K: Aminor
A2 AA AEAB|c2 cB A2 cd|e2 ee d2 f2|e4 e4|d2 Bc d2 e2|cdcB A2 Bc|e2 ee d2 c2|B6 z2|
A2 AA AEAB|c2 cB A2 cd|e2 ee d2 f2|e4 e4|g2 gg gagf|e2 ec A2 Ac|e2 d2 c2 B2|A4 A4||
|:a2 b2 a e3|g2 f2 e4|edef edcB|ABcd e4|a2 b2 a e3|g2 f2 e4|edef edcB|A4 A2 z2:|

